svg/u1f64b_1f3fc_200d_2640.svg

<svg viewBox="0 0 128 128" xmlns="http://www.w3.org/2000/svg">
  <g id="hairGroup_5_">
    <path id="hair_2_" d="M64.6,3.87c-41.01,0-40.68,37.92-40.68,38.52c0,24.56,1.88,59.25,11.71,72.9 c3.9,5.41,11.43,5.71,11.43,5.71l16.97-0.03L81,121c0,0,7.54-0.3,11.43-5.71c9.83-13.65,11.71-48.34,11.71-72.9 C104.14,41.79,105.61,3.87,64.6,3.87z" fill="#AB872F"/>
    <radialGradient id="hairHighlights_1_" cx="64.0303" cy="68.5668" gradientTransform="matrix(1 0 0 -1.1901 0 141.0324)" gradientUnits="userSpaceOnUse" r="47.5316">
      <stop offset="0.7936" stop-color="#BFA055" stop-opacity="0"/>
      <stop offset="1" stop-color="#BFA055"/>
    </radialGradient>
    <path id="hairHighlights_5_" d="M64.6,3.87c-41.01,0-40.68,37.92-40.68,38.52 c0,24.56,1.88,59.25,11.71,72.9c3.9,5.41,11.43,5.71,11.43,5.71l16.97-0.03L81,121c0,0,7.54-0.3,11.43-5.71 c9.83-13.65,11.71-48.34,11.71-72.9C104.14,41.79,105.61,3.87,64.6,3.87z" fill="url(#hairHighlights_1_)"/>
  </g>
  <linearGradient id="shirt_x5F_fill_1_" gradientTransform="matrix(1 0 0 -1 0 128)" gradientUnits="userSpaceOnUse" x1="60.195" x2="60.195" y1="43.8417" y2="10.9057">
    <stop offset="0" stop-color="#651FFF"/>
    <stop offset="0.7047" stop-color="#5914F2"/>
    <stop offset="1" stop-color="#530EEB"/>
  </linearGradient>
  <path id="shirt_x5F_fill" d="M115.17,124c-0.26-7.29-6.17-16.97-13.82-20.99 C91.29,97.72,78.41,96,63.99,96c-8.9,0-15.98,2.62-24.35-0.01c-4.44-1.4-7.51-3.69-8.97-8.18l-1.32-4.05l-24.13,6 c0,0,5.02,21.89,7.57,34.24H115.17z" fill="url(#shirt_x5F_fill_1_)"/>
  <path id="neck_2_" d="M73.12,90.07H54.96v9.98c0,4.51,3.7,8.17,8.26,8.17h1.65c4.56,0,8.26-3.66,8.26-8.17 v-9.98C73.13,90.07,73.12,90.07,73.12,90.07z" fill="#C48E6A"/>
  <path id="head_2_" d="M64.04,16.03c-17.2,0-33.13,12.79-33.13,39.91c0,21.79,13.49,34.67,25.23,38.83 c2.8,0.99,5.5,1.49,7.9,1.49c2.38,0,5.07-0.49,7.85-1.47c11.76-4.14,25.28-17.03,25.28-38.84C97.17,28.82,81.24,16.03,64.04,16.03z" fill="#E0BB95"/>
  <path id="nose_2_" d="M67.85,68.04c-0.1-0.04-0.21-0.07-0.32-0.08h-6.99c-0.11,0.01-0.21,0.04-0.32,0.08 c-0.63,0.26-0.98,0.91-0.68,1.61s1.69,2.66,4.49,2.66c2.8,0,4.19-1.96,4.49-2.66C68.83,68.96,68.49,68.3,67.85,68.04z" fill="#C48E6A"/>
  <g id="hairGroup_4_">
    <path id="hair_1_" d="M64.6,3.87c-41.01,0-40.68,37.92-40.68,38.52c0,7.76,0.19,16.53,0.75,25.32l6.72-0.02 c-0.06-2.92,1.99-20.97,8.08-22.34c22.36-5.03,35.01-16.89,35.01-16.89c3.29,7.18,13.58,14.19,17.27,16.86 c3.03,2.19,4.03,18.55,3.97,22.38h7.63c0-0.05,0.02-0.1,0.02-0.16c0.56-8.75,0.74-17.46,0.74-25.17 C104.14,41.79,105.61,3.87,64.6,3.87z" fill="#AB872F"/>
    <radialGradient id="hairHighlights_2_" cx="64.3636" cy="64.5422" gradientTransform="matrix(1 0 0 -1.2135 0 141.7829)" gradientUnits="userSpaceOnUse" r="49.788">
      <stop offset="0.7945" stop-color="#BFA055" stop-opacity="0"/>
      <stop offset="1" stop-color="#BFA055"/>
    </radialGradient>
    <path id="hairHighlights_4_" d="M64.6,3.87c-41.01,0-40.68,37.92-40.68,38.52 c0,7.76,0.19,16.53,0.75,25.32l6.72-0.02c-0.06-2.92,1.99-20.97,8.08-22.34c22.36-5.03,35.01-16.89,35.01-16.89 c3.29,7.18,13.58,14.19,17.27,16.86c3.03,2.19,4.03,18.55,3.97,22.38h7.63c0-0.05,0.02-0.1,0.02-0.16 c0.56-8.75,0.74-17.46,0.74-25.17C104.14,41.79,105.61,3.87,64.6,3.87z" fill="url(#hairHighlights_2_)"/>
  </g>
  <path id="mouth_2_" d="M72.36,76.13C69.21,78,58.9,78,55.75,76.13c-1.81-1.07-3.65,0.57-2.9,2.21 c0.74,1.61,6.37,5.36,11.23,5.36s10.42-3.75,11.16-5.36C75.99,76.7,74.16,75.05,72.36,76.13z" fill="#6D4C41"/>
  <g id="eyebrows_2_">
    <path d="M55.02,49.81c-0.93-1.23-3.07-3.01-7.23-3.01s-6.31,1.79-7.23,3.01c-0.41,0.54-0.31,1.17-0.02,1.55 c0.26,0.35,1.04,0.68,1.9,0.39s2.54-1.16,5.35-1.18c2.81,0.02,4.49,0.89,5.35,1.18s1.64-0.03,1.9-0.39 C55.33,50.98,55.43,50.35,55.02,49.81z" fill="#AB872F"/>
    <path d="M87.52,49.81c-0.93-1.23-3.07-3.01-7.23-3.01s-6.31,1.79-7.23,3.01c-0.41,0.54-0.31,1.17-0.02,1.55 c0.26,0.35,1.04,0.68,1.9,0.39s2.54-1.16,5.35-1.18c2.81,0.02,4.49,0.89,5.35,1.18s1.64-0.03,1.9-0.39 C87.83,50.98,87.93,50.35,87.52,49.81z" fill="#AB872F"/>
  </g>
  <g id="eyes_2_">
    <ellipse cx="47.79" cy="58.86" fill="#5D4037" rx="4.87" ry="5.04"/>
    <ellipse cx="80.29" cy="58.86" fill="#5D4037" rx="4.87" ry="5.04"/>
  </g>
  <linearGradient id="hand_1_" gradientTransform="matrix(1 0 0 -1 0 128)" gradientUnits="userSpaceOnUse" x1="32.5468" x2="24.5845" y1="118.0474" y2="83.7484">
    <stop offset="0.5" stop-color="#E0BB95"/>
    <stop offset="1" stop-color="#CCA47A"/>
  </linearGradient>
  <path id="hand" d="M44.33,31.43c-2.3,0.03-6.66,3.52-8.4,5.76c-2.84,3.64-4.85,11.23-14.21,8.31 c-1.67-0.51-8.34-1.63-9.49-2.3c-0.78-0.45-2.85-4.14-1.54-11.69c0.49-2.87,1.66-9.81,1.66-9.81L14,10.83 c0.21-1.83,1.48-3.01,3.21-2.58c1.39,0.35,1.78,1.6,1.68,3.23l-0.39,6.54v0.04c0,0.29,0.21,0.55,0.51,0.61 c0.33,0.06,0.65-0.15,0.72-0.48c0.48-2.19,2.14-9.8,2.51-11.15c0.44-1.58,1.27-2.84,3.04-2.45c1.77,0.38,2.05,2.22,1.75,3.67 c-0.29,1.44-2.18,11.47-2.18,11.47c-0.07,0.35,0.12,0.68,0.45,0.76c0,0,0,0,0.01,0c0.31,0.07,0.63-0.14,0.72-0.47l4.12-13.55 c0.49-1.78,2.01-2.87,3.64-2.14c1.3,0.59,1.59,2.09,1.18,3.58l-3.49,13.83c-0.04,0.16,0.04,0.33,0.19,0.38h0.01 c0.14,0.04,0.3-0.04,0.35-0.19l4.7-11.35c0.56-1.43,1.8-2.43,3.18-2.07c1.76,0.44,2.28,2.23,1.62,3.94c0,0-4.49,12.27-5.91,16.05 c-0.02,0.07-0.05,0.14-0.07,0.2c-0.01,0.02-0.02,0.03-0.02,0.04c-0.12,0.33,0.04,0.65,0.31,0.78c0.08,0.04,0.17,0.06,0.26,0.06 c0.1,0,0.2-0.03,0.3-0.07c0.09-0.05,0.18-0.09,0.26-0.15c0.03-0.02,0.06-0.04,0.09-0.06c1.42-0.88,2.77-2.81,4.97-3.1 c2.4-0.32,3.95,0.58,4.46,1.62C46.62,28.69,46.63,31.39,44.33,31.43z" fill="url(#hand_1_)"/>
  <g id="shirt_x5F_sleeve_x5F_left">
    <linearGradient id="shirt_x5F_right_1_" gradientTransform="matrix(1 0 0 -1 0 128)" gradientUnits="userSpaceOnUse" x1="17.5748" x2="17.5748" y1="45.0495" y2="-27.9493">
      <stop offset="0" stop-color="#651FFF"/>
      <stop offset="0.7047" stop-color="#5914F2"/>
      <stop offset="1" stop-color="#530EEB"/>
    </linearGradient>
    <path id="shirt_x5F_right" d="M29.12,83.06c-0.48-1.94-0.66-3.94-0.54-5.93l0.63-29.18 c0.05-0.8-0.37-1.52-1.03-1.88c-0.24-0.15-0.51-0.26-0.8-0.3l-15.97-3.7c-1.03-0.13-1.99,0.55-2.21,1.56c0,0-4.13,30.92-4.43,33.39 S3.69,82.46,4.5,86.2l0.72,3.55l25.79-0.69L29.12,83.06z" fill="url(#shirt_x5F_right_1_)"/>
  </g>
  <path id="tone_1_" d="M35.83,29.52c-3.12,0.14-6.24,0.51-8.95,1.9c-1.36,0.71-2.56,1.69-3.58,2.86 c-0.82,0.93-1.48,1.98-2.08,3.11c-0.02,0.05-0.07,0.08-0.11,0.08c-0.07,0-0.11-0.05-0.12-0.11v-0.01c0-0.03,0.9-2.51,1.64-3.59 c0.93-1.38,2.23-2.53,3.71-3.35c1.47-0.82,3.08-1.35,4.71-1.62c1.52-0.27,3.05-0.35,4.56-0.29c-0.02,0.07-0.05,0.14-0.07,0.2 c-0.01,0.02-0.02,0.03-0.02,0.04C35.4,29.07,35.56,29.39,35.83,29.52z" fill="#BA8F63"/>
</svg>

<svg viewBox="0 0 128 128" xmlns="http://www.w3.org/2000/svg">
  <defs>
    <radialGradient id="hairHighlights_1_" cx="64.0303" cy="-49.937863" gradientTransform="matrix(1 0 0 -1.1901 0 0)" gradientUnits="userSpaceOnUse" r="47.5316">
      <stop offset="0.7936" stop-color="#BFA055" stop-opacity="0"/>
      <stop offset="1" stop-color="#BFA055"/>
    </radialGradient>
    <radialGradient id="hairHighlights_2_" cx="64.3636" cy="-52.295789" gradientTransform="matrix(1 0 0 -1.2135 0 0)" gradientUnits="userSpaceOnUse" r="49.788">
      <stop offset="0.7945" stop-color="#BFA055" stop-opacity="0"/>
      <stop offset="1" stop-color="#BFA055"/>
    </radialGradient>
    <linearGradient id="hand_1_" gradientTransform="matrix(1 0 0 -1 0 0)" gradientUnits="userSpaceOnUse" x1="32.5468" x2="24.5845" y1="-9.9526" y2="-44.2516">
      <stop offset="0.5" stop-color="#E0BB95"/>
      <stop offset="1" stop-color="#CCA47A"/>
    </linearGradient>
    <linearGradient id="shirt_x5F_fill_1_" gradientTransform="matrix(1 0 0 -1 0 0)" gradientUnits="userSpaceOnUse" x1="60.195" x2="60.195" y1="-84.1583" y2="-117.0943">
      <stop offset="0" stop-color="#651FFF"/>
      <stop offset="0.7047" stop-color="#5914F2"/>
      <stop offset="1" stop-color="#530EEB"/>
    </linearGradient>
    <linearGradient id="shirt_x5F_right_1_" gradientTransform="matrix(1 0 0 -1 0 0)" gradientUnits="userSpaceOnUse" x1="17.5748" x2="17.5748" y1="-82.9505" y2="-155.9493">
      <stop offset="0" stop-color="#651FFF"/>
      <stop offset="0.7047" stop-color="#5914F2"/>
      <stop offset="1" stop-color="#530EEB"/>
    </linearGradient>
  </defs>
  <path id="hair_2_" d="M64.6,3.87 C23.59,3.87 23.92,41.79 23.92,42.39 C23.92,66.95 25.8,101.64 35.63,115.29 C39.53,120.7 47.06,121 47.06,121 L64.03,120.97 L81,121 C81,121 88.54,120.7 92.43,115.29 C102.26,101.64 104.14,66.95 104.14,42.39 C104.14,41.79 105.61,3.87 64.6,3.87 Z" fill="#AB872F"/>
  <path id="hairHighlights_5_" d="M64.6,3.87 C23.59,3.87 23.92,41.79 23.92,42.39 C23.92,66.95 25.8,101.64 35.63,115.29 C39.53,120.7 47.06,121 47.06,121 L64.03,120.97 L81,121 C81,121 88.54,120.7 92.43,115.29 C102.26,101.64 104.14,66.95 104.14,42.39 C104.14,41.79 105.61,3.87 64.6,3.87 Z" fill="url(#hairHighlights_1_)"/>
  <path id="shirt_x5F_fill" d="M115.17,124 C114.91,116.71 109,107.03 101.35,103.01 C91.29,97.72 78.41,96 63.99,96 C55.09,96 48.01,98.62 39.64,95.99 C35.2,94.59 32.13,92.3 30.67,87.81 L29.35,83.76 L5.22,89.76 C5.22,89.76 10.24,111.65 12.79,124 L115.17,124 Z" fill="url(#shirt_x5F_fill_1_)"/>
  <path id="neck_2_" d="M73.12,90.07 L54.96,90.07 L54.96,100.05 C54.96,104.56 58.66,108.22 63.22,108.22 L64.87,108.22 C69.43,108.22 73.13,104.56 73.13,100.05 L73.13,90.07 C73.13,90.07 73.12,90.07 73.12,90.07 Z" fill="#C48E6A"/>
  <path id="head_2_" d="M64.04,16.03 C46.84,16.03 30.91,28.82 30.91,55.94 C30.91,77.73 44.4,90.61 56.14,94.77 C58.94,95.76 61.64,96.26 64.04,96.26 C66.42,96.26 69.11,95.77 71.89,94.79 C83.65,90.65 97.17,77.76 97.17,55.95 C97.17,28.82 81.24,16.03 64.04,16.03 Z" fill="#E0BB95"/>
  <path id="nose_2_" d="M67.85,68.04 C67.75,68 67.64,67.97 67.53,67.96 L60.54,67.96 C60.43,67.97 60.33,68 60.22,68.04 C59.59,68.3 59.24,68.95 59.54,69.65 C59.84,70.35 61.23,72.31 64.03,72.31 C66.83,72.31 68.22,70.35 68.52,69.65 C68.83,68.96 68.49,68.3 67.85,68.04 Z" fill="#C48E6A"/>
  <path id="hair_1_" d="M64.6,3.87 C23.59,3.87 23.92,41.79 23.92,42.39 C23.92,50.15 24.11,58.92 24.67,67.71 L31.39,67.69 C31.33,64.77 33.38,46.72 39.47,45.35 C61.83,40.32 74.48,28.46 74.48,28.46 C77.77,35.64 88.06,42.65 91.75,45.32 C94.78,47.51 95.78,63.87 95.72,67.7 L103.35,67.7 C103.35,67.65 103.37,67.6 103.37,67.54 C103.93,58.79 104.11,50.08 104.11,42.37 C104.14,41.79 105.61,3.87 64.6,3.87 Z" fill="#AB872F"/>
  <path id="hairHighlights_4_" d="M64.6,3.87 C23.59,3.87 23.92,41.79 23.92,42.39 C23.92,50.15 24.11,58.92 24.67,67.71 L31.39,67.69 C31.33,64.77 33.38,46.72 39.47,45.35 C61.83,40.32 74.48,28.46 74.48,28.46 C77.77,35.64 88.06,42.65 91.75,45.32 C94.78,47.51 95.78,63.87 95.72,67.7 L103.35,67.7 C103.35,67.65 103.37,67.6 103.37,67.54 C103.93,58.79 104.11,50.08 104.11,42.37 C104.14,41.79 105.61,3.87 64.6,3.87 Z" fill="url(#hairHighlights_2_)"/>
  <path id="mouth_2_" d="M72.36,76.13 C69.21,78 58.9,78 55.75,76.13 C53.94,75.06 52.1,76.7 52.85,78.34 C53.59,79.95 59.22,83.7 64.08,83.7 C68.94,83.7 74.5,79.95 75.24,78.34 C75.99,76.7 74.16,75.05 72.36,76.13 Z" fill="#6D4C41"/>
  <path d="M55.02,49.81 C54.09,48.58 51.95,46.8 47.79,46.8 C43.63,46.8 41.48,48.59 40.56,49.81 C40.15,50.35 40.25,50.98 40.54,51.36 C40.8,51.71 41.58,52.04 42.44,51.75 C43.3,51.46 44.98,50.59 47.79,50.57 C50.6,50.59 52.28,51.46 53.14,51.75 C54,52.04 54.78,51.72 55.04,51.36 C55.33,50.98 55.43,50.35 55.02,49.81 Z" fill="#AB872F"/>
  <path d="M87.52,49.81 C86.59,48.58 84.45,46.8 80.29,46.8 C76.13,46.8 73.98,48.59 73.06,49.81 C72.65,50.35 72.75,50.98 73.04,51.36 C73.3,51.71 74.08,52.04 74.94,51.75 C75.8,51.46 77.48,50.59 80.29,50.57 C83.1,50.59 84.78,51.46 85.64,51.75 C86.5,52.04 87.28,51.72 87.54,51.36 C87.83,50.98 87.93,50.35 87.52,49.81 Z" fill="#AB872F"/>
  <path d="M52.66,58.86 A4.87 5.04 0 1 1 42.92,58.86 A4.87 5.04 0 1 1 52.66,58.86 Z" fill="#5D4037"/>
  <path d="M85.16,58.86 A4.87 5.04 0 1 1 75.42,58.86 A4.87 5.04 0 1 1 85.16,58.86 Z" fill="#5D4037"/>
  <path id="hand" d="M44.33,31.43 C42.03,31.46 37.67,34.95 35.93,37.19 C33.09,40.83 31.08,48.42 21.72,45.5 C20.05,44.99 13.38,43.87 12.23,43.2 C11.45,42.75 9.38,39.06 10.69,31.51 C11.18,28.64 12.35,21.7 12.35,21.7 L14,10.83 C14.21,9 15.48,7.82 17.21,8.25 C18.6,8.6 18.99,9.85 18.89,11.48 L18.5,18.02 L18.5,18.06 C18.5,18.35 18.71,18.61 19.01,18.67 C19.34,18.73 19.66,18.52 19.73,18.19 C20.21,16 21.87,8.39 22.24,7.04 C22.68,5.46 23.51,4.2 25.28,4.59 C27.05,4.97 27.33,6.81 27.03,8.26 C26.74,9.7 24.85,19.73 24.85,19.73 C24.78,20.08 24.97,20.41 25.3,20.49 C25.3,20.49 25.3,20.49 25.31,20.49 C25.62,20.56 25.94,20.35 26.03,20.02 L30.15,6.47 C30.64,4.69 32.16,3.6 33.79,4.33 C35.09,4.92 35.38,6.42 34.97,7.91 L31.48,21.74 C31.44,21.9 31.52,22.07 31.67,22.12 L31.68,22.12 C31.82,22.16 31.98,22.08 32.03,21.93 L36.73,10.58 C37.29,9.15 38.53,8.15 39.91,8.51 C41.67,8.95 42.19,10.74 41.53,12.45 C41.53,12.45 37.04,24.72 35.62,28.5 C35.6,28.57 35.57,28.64 35.55,28.7 C35.54,28.72 35.53,28.73 35.53,28.74 C35.41,29.07 35.57,29.39 35.84,29.52 C35.92,29.56 36.01,29.58 36.1,29.58 C36.2,29.58 36.3,29.55 36.4,29.51 C36.49,29.46 36.58,29.42 36.66,29.36 C36.69,29.34 36.72,29.32 36.75,29.3 C38.17,28.42 39.52,26.49 41.72,26.2 C44.12,25.88 45.67,26.78 46.18,27.82 C46.62,28.69 46.63,31.39 44.33,31.43 Z" fill="url(#hand_1_)"/>
  <path id="shirt_x5F_right" d="M29.12,83.06 C28.64,81.12 28.46,79.12 28.58,77.13 L29.21,47.95 C29.26,47.15 28.84,46.43 28.18,46.07 C27.94,45.92 27.67,45.81 27.38,45.77 L11.41,42.07 C10.38,41.94 9.42,42.62 9.2,43.63 C9.2,43.63 5.07,74.55 4.77,77.02 C4.47,79.49 3.69,82.46 4.5,86.2 L5.22,89.75 L31.01,89.06 L29.12,83.06 Z" fill="url(#shirt_x5F_right_1_)"/>
  <path id="tone_1_" d="M35.83,29.52 C32.71,29.66 29.59,30.03 26.88,31.42 C25.52,32.13 24.32,33.11 23.3,34.28 C22.48,35.21 21.82,36.26 21.22,37.39 C21.2,37.44 21.15,37.47 21.11,37.47 C21.04,37.47 21,37.42 20.99,37.36 L20.99,37.35 C20.99,37.32 21.89,34.84 22.63,33.76 C23.56,32.38 24.86,31.23 26.34,30.41 C27.81,29.59 29.42,29.06 31.05,28.79 C32.57,28.52 34.1,28.44 35.61,28.5 C35.59,28.57 35.56,28.64 35.54,28.7 C35.53,28.72 35.52,28.73 35.52,28.74 C35.4,29.07 35.56,29.39 35.83,29.52 Z" fill="#BA8F63"/>
</svg>
